X:115
M:2/4
L:1/8
K:G
d>edg | e>=feg | d>e {d}dc/B/ | B3 A | d>c B2 | e>d c2 | g2 d=f | ec c2 | B>c d2 | e>fga | b(gg)d | eg g2 :|

